status/symbolic/weather-clear-symbolic.svg

<?xml version="1.0" encoding="UTF-8" standalone="no"?>
<svg
   xmlns:dc="http://purl.org/dc/elements/1.1/"
   xmlns:cc="http://creativecommons.org/ns#"
   xmlns:rdf="http://www.w3.org/1999/02/22-rdf-syntax-ns#"
   xmlns:svg="http://www.w3.org/2000/svg"
   xmlns="http://www.w3.org/2000/svg"
   id="svg6"
   version="1.1"
   width="16"
   height="16">
  <metadata
     id="metadata12">
    <rdf:RDF>
      <cc:Work
         rdf:about="">
        <dc:format>image/svg+xml</dc:format>
        <dc:type
           rdf:resource="http://purl.org/dc/dcmitype/StillImage" />
        <dc:title></dc:title>
      </cc:Work>
    </rdf:RDF>
  </metadata>
  <defs
     id="defs10" />
  <path
     id="path1050"
     class="warning"
     d="m 7.4864281,2.0000935 a 0.5,0.5 0 0 0 -0.4863281,0.5 v 1 a 0.5000002,0.5000002 0 1 0 1,0 v -1 a 0.5,0.5 0 0 0 -0.5136719,-0.5 z m -3.8828125,1.611328 a 0.49992449,0.49992449 0 0 0 -0.3457031,0.853516 l 0.7070313,0.708984 A 0.499,0.499 0 0 0 4.8184594,4.8184525 0.5,0.5 0 0 0 4.671975,4.4668905 L 3.9649438,3.7579055 A 0.49992449,0.49992449 0 0 0 3.6036156,3.6114215 Z m 7.7675784,0 a 0.502,0.502 0 0 0 -0.335938,0.146484 l -0.707031,0.707032 a 0.50027817,0.50027817 0 1 0 0.707031,0.707031 l 0.707032,-0.707031 a 0.5,0.5 0 0 0 0.148437,-0.353516 0.502,0.502 0 0 0 -0.519531,-0.5 z M 7.4571312,5.0000935 A 3.0000002,3.0000002 0 0 0 5.3790062,10.121187 3.0000002,3.0000002 0 0 0 9.621194,5.8789995 3.0000002,3.0000002 0 0 0 7.4571312,5.0000935 Z m -5.4570312,2.5 a 0.50000001,0.50000001 0 1 0 0,1 h 1 c 0.2770001,0 0.5000004,-0.223 0.5,-0.5 2e-7,-0.277 -0.2229997,-0.5 -0.5,-0.5 z m 10,0 a 0.50000015,0.50000015 0 1 0 0,1 h 1 c 0.277,10e-7 0.500001,-0.223 0.5,-0.5 1e-6,-0.277 -0.223,-0.5 -0.5,-0.5 z M 4.3047875,10.681734 A 0.5,0.5 0 0 0 3.9649438,10.828218 L 3.2579125,11.535249 A 0.4999467,0.4999467 0 1 0 3.9649438,12.24228 L 4.671975,11.535249 a 0.498,0.498 0 0 0 0.1464844,-0.353515 0.5,0.5 0 0 0 -0.5136719,-0.5 z m 6.3710935,0 a 0.49992449,0.49992449 0 0 0 -0.347656,0.853515 l 0.707031,0.707031 a 0.499,0.499 0 0 0 0.707032,0 0.5,0.5 0 0 0 0.148437,-0.353515 0.502,0.502 0 0 0 -0.148437,-0.353516 l -0.707032,-0.707031 a 0.49992449,0.49992449 0 0 0 -0.359375,-0.146484 z m -3.1894529,1.318359 a 0.5000002,0.5000002 0 0 0 -0.4863281,0.5 v 1 a 0.5,0.5 0 1 0 1,0 v -1 a 0.5000002,0.5000002 0 0 0 -0.5136719,-0.5 z"
     style="opacity:1;vector-effect:none;fill:#f9c440;fill-opacity:1;stroke-width:1;stroke-linecap:butt;stroke-linejoin:miter;stroke-miterlimit:4;stroke-dasharray:none;stroke-dashoffset:0;stroke-opacity:1" />
</svg>

<svg
        xmlns='http://www.w3.org/2000/svg'
        xmlns:svg='http://www.w3.org/2000/svg'
        id='svg6'
        width='16'
        height='16'>
  <path
          id='path1050'
          opacity='1'
          fill='url(#gpa:warning) #f9c440'
          fill-opacity='1'
          fill-rule='nonzero'
          stroke='none'
          stroke-opacity='1'
          stroke-width='1'
          stroke-linecap='butt'
          stroke-linejoin='miter'
          stroke-miterlimit='4'
          stroke-dasharray='none'
          stroke-dashoffset='0'
          d='M 7.48643 2.00009 A 0.5 0.5 0 0 0 7.0001 2.50009 L 7.0001 3.50009 A 0.5 0.5 0 1 0 8.0001 3.50009 L 8.0001 2.50009 A 0.5 0.5 0 0 0 7.48643 2.00009 Z M 3.60362 3.61142 A 0.499924 0.499924 0 0 0 3.25791 4.46494 L 3.96494 5.17392 A 0.499 0.499 0 0 0 4.81846 4.81845 A 0.5 0.5 0 0 0 4.67198 4.46689 L 3.96494 3.75791 A 0.499924 0.499924 0 0 0 3.60362 3.61142 Z M 11.3712 3.61142 A 0.502 0.502 0 0 0 11.0353 3.75791 L 10.3282 4.46494 A 0.500278 0.500278 0 1 0 11.0353 5.17197 L 11.7423 4.46494 A 0.5 0.5 0 0 0 11.8907 4.11142 A 0.502 0.502 0 0 0 11.3712 3.61142 Z M 7.45713 5.00009 A 3 3 0 0 0 5.37901 10.1212 A 3 3 0 0 0 9.62119 5.879 A 3 3 0 0 0 7.45713 5.00009 Z M 2.0001 7.50009 A 0.5 0.5 0 1 0 2.0001 8.50009 L 3.0001 8.50009 C 3.2771 8.50009, 3.5001 8.27709, 3.5001 8.00009 C 3.5001 7.72309, 3.2771 7.50009, 3.0001 7.50009 Z M 12.0001 7.50009 A 0.5 0.5 0 1 0 12.0001 8.50009 L 13.0001 8.50009 C 13.2771 8.50009, 13.5001 8.27709, 13.5001 8.00009 C 13.5001 7.72309, 13.2771 7.50009, 13.0001 7.50009 Z M 4.30479 10.6817 A 0.5 0.5 0 0 0 3.96494 10.8282 L 3.25791 11.5352 A 0.499947 0.499947 0 1 0 3.96494 12.2423 L 4.67198 11.5352 A 0.498 0.498 0 0 0 4.81846 11.1817 A 0.5 0.5 0 0 0 4.30479 10.6817 Z M 10.6759 10.6817 A 0.499924 0.499924 0 0 0 10.3282 11.5352 L 11.0353 12.2423 A 0.499 0.499 0 0 0 11.7423 12.2423 A 0.5 0.5 0 0 0 11.8907 11.8888 A 0.502 0.502 0 0 0 11.7423 11.5352 L 11.0353 10.8282 A 0.499924 0.499924 0 0 0 10.6759 10.6817 Z M 7.48643 12.0001 A 0.5 0.5 0 0 0 7.0001 12.5001 L 7.0001 13.5001 A 0.5 0.5 0 1 0 8.0001 13.5001 L 8.0001 12.5001 A 0.5 0.5 0 0 0 7.48643 12.0001 Z'
          class="warning">
  </path>
</svg>
